icons/datadog.svg

<svg role="img" viewBox="0 0 24 24" xmlns="http://www.w3.org/2000/svg"><title>Datadog icon</title><path d="M8.00411282,6.29437949 C8.83201026,5.72966154 9.89939487,5.95191795 9.72052308,6.12155897 C9.38011282,6.44545641 9.83334359,6.35007179 9.88206154,6.94822564 C9.9181641,7.38873846 9.77406154,7.63191795 9.65026667,7.76996923 C9.39211282,7.80391795 9.07775385,7.8672 8.69970256,7.98986667 C8.47570256,8.06248205 8.28093333,8.14350769 8.11057436,8.22453333 C8.06554872,8.19499487 8.01693333,8.15961026 7.95898462,8.10945641 C7.37406154,7.60361026 7.39354872,6.71037949 8.00411282,6.29437949 L8.00411282,6.29437949 Z M12.9508821,9.78268718 C13.1009333,9.66617436 13.7839077,9.44689231 14.4164205,9.37181538 C14.7481128,9.33222564 15.2211385,9.31017436 15.3222667,9.36637949 C15.5224718,9.47704615 15.5224718,9.81940513 15.3853436,10.1358154 C15.1857538,10.5957128 14.9029846,11.1027897 14.5830872,11.144841 C14.0613436,11.2136615 13.5671897,10.9315077 13.0036,10.5101744 C12.8024718,10.3598154 12.6789846,9.99314872 12.9508821,9.78268718 L12.9508821,9.78268718 Z M13.9028821,5.3086359 C14.6736513,5.66709744 14.5728308,6.34935385 14.5940615,6.75007179 C14.6000103,6.86504615 14.5980615,6.94289231 14.5883179,6.99643077 C14.481241,6.93858462 14.3128308,6.89632821 14.0453436,6.90781538 C13.9672923,6.91130256 13.8908821,6.92043077 13.8174462,6.93232821 C13.5328308,6.78012308 13.3632923,6.48155897 13.2076,6.16484103 C13.1934462,6.13581538 13.1823692,6.10955897 13.1722154,6.08402051 C13.1676,6.07232821 13.1624718,6.05950769 13.1584718,6.04904615 C13.1565231,6.04350769 13.1548821,6.03858462 13.1530359,6.03325128 C13.0677026,5.76248205 13.1249333,5.70832821 13.1611385,5.62484103 C13.1984718,5.53991795 13.3376513,5.46935385 13.1322154,5.39817436 C13.1146769,5.39191795 13.0923179,5.38740513 13.0677026,5.38350769 C13.2030872,5.21468718 13.6118051,5.17335385 13.9028821,5.3086359 L13.9028821,5.3086359 Z M9.70124103,13.4668923 C8.87047179,12.9333538 8.0116,12.1687385 7.63601026,11.7458667 C7.57293333,11.6983795 7.58318974,11.4873026 7.58318974,11.4873026 C7.92226667,11.7512 9.32913846,12.7559179 10.8162154,13.2149949 C11.3406256,13.3770462 12.1458564,13.4381744 12.8442154,13.0420718 C13.3780615,12.7392 14.0207282,12.2121231 14.4038051,11.6686359 L14.473959,11.7906872 C14.4716,11.8717128 14.2947795,12.2649436 14.2051385,12.4230974 C14.3672923,12.5164308 14.4883179,12.5416615 14.6691385,12.5914051 L15.9008308,12.3993026 C16.3425744,11.6854564 16.6597026,10.533559 16.3221641,9.43745641 C16.1291385,8.80884103 15.1241128,7.55704615 15.0519077,7.48802051 C14.7991897,7.24535385 15.0941641,6.30740513 14.5934462,5.28494359 C14.0639077,4.20350769 12.6857538,3.07509744 12.0867795,2.58391795 C12.2634974,2.71304615 13.349959,3.15058462 13.8559077,3.76186667 C13.9034974,3.69858462 13.9229846,3.37048205 13.9664718,3.28740513 C13.5319077,2.71837949 13.497959,1.7046359 13.497959,1.43386667 C13.497959,0.93745641 13.245241,0.374071795 13.245241,0.374071795 C13.245241,0.374071795 13.6803179,0.718174359 13.7926256,1.31130256 C13.9253436,2.01386667 14.2086256,2.56668718 14.5830872,3.03458462 C15.2916,3.91745641 15.9314974,4.37048205 16.2553949,4.04443077 C16.6425744,3.65222564 15.8632923,1.8992 14.8667795,0.920533333 C13.7055487,-0.220287179 13.4009333,-0.0731076923 12.7191897,0.170584615 C12.1751897,0.364225641 11.8809333,1.90955897 10.4625744,1.87899487 C10.221959,1.8512 9.60339487,1.83571282 9.29734359,1.83848205 C9.45713846,1.61591795 9.59344615,1.44391795 9.59344615,1.44391795 C9.59344615,1.44391795 9.11765128,1.63509744 8.71252308,1.87796923 L8.68093333,1.83068718 C8.81785641,1.54207179 8.96513846,1.36043077 8.96513846,1.36043077 C8.96513846,1.36043077 8.5850359,1.58894359 8.23826667,1.86227692 C8.30144615,1.51827692 8.54011282,1.29981538 8.54011282,1.29981538 C8.54011282,1.29981538 8.05980513,1.38689231 7.44780513,2.05981538 C6.75221538,2.24945641 6.58483077,2.37499487 6.03088205,2.62002051 C5.13036923,2.42350769 4.70493333,2.10627692 4.30031795,1.52237949 C3.99149744,1.0766359 3.44308718,1.00894359 2.88134359,1.2392 C2.06431795,1.57817436 1.02965128,2.04094359 1.02965128,2.04094359 C1.02965128,2.04094359 1.3661641,2.02812308 1.71775385,2.04350769 C1.2370359,2.2257641 0.774266667,2.47622564 0.774266667,2.47622564 C0.774266667,2.47622564 0.9996,2.46832821 1.27765128,2.47325128 C1.08534359,2.63284103 0.979292308,2.70894359 0.796933333,2.83007179 C0.356728205,3.14925128 1.02564103e-05,3.51817436 1.02564103e-05,3.51817436 C1.02564103e-05,3.51817436 0.298984615,3.38196923 0.566779487,3.30586667 C0.379497436,3.73561026 0.00790769231,4.05181538 0.0761128205,4.57796923 C0.14185641,5.05868718 0.731292308,6.04781538 1.49262564,6.65499487 C1.55836923,6.70781538 2.59826667,7.66925128 3.38226667,7.27458462 C4.16647179,6.88032821 4.47518974,6.52853333 4.60421538,5.98935385 C4.75580513,5.36986667 4.66944615,4.90258462 4.34606154,3.55878974 C4.23949744,3.11509744 3.96165128,2.20217436 3.82698462,1.76555897 L3.85713846,1.74350769 C4.11354872,2.2846359 4.76965128,3.71078974 5.03406154,4.66843077 C5.44708718,6.16237949 5.31765128,6.92032821 5.1290359,7.19786667 C4.55980513,8.03581538 3.10011282,8.14648205 2.43611282,7.68207179 C2.33498462,9.29068718 2.6941641,9.99868718 2.81570256,10.3554051 C2.75488205,10.7654564 3.02072821,11.5267897 3.02072821,11.5267897 C3.02072821,11.5267897 3.05077949,11.1804308 3.17242051,10.9981744 C3.20493333,11.4052513 3.41006154,11.8885333 3.41006154,11.8885333 C3.41006154,11.8885333 3.39754872,11.5899692 3.49108718,11.3322256 C3.62247179,11.5543795 3.71918974,11.6078154 3.84329231,11.7748923 C3.96739487,12.2096615 4.21734359,12.5278154 4.21734359,12.5278154 C4.21734359,12.5278154 4.17642051,12.2945846 4.19898462,12.0516103 C4.8076,12.6364308 4.91231795,13.489559 4.97313846,14.1447385 C5.14370256,15.9477128 2.13088205,17.3803282 1.54688205,18.5078154 C1.10462564,19.1753026 0.839805128,20.2324308 1.5890359,20.8549949 C3.40062564,22.3592 2.7050359,22.7734564 3.61149744,23.4343795 C4.85518974,24.3409436 6.41231795,23.9348923 6.94206154,23.1973538 C7.67970256,22.169559 7.49006154,21.1999179 7.21601026,20.2936615 C7.00185641,19.584841 6.42011282,18.4068923 5.69949744,17.9508923 C4.96411282,17.4850462 4.2490359,17.3976615 3.64277949,17.4601231 L3.69877949,17.3961231 C4.57057436,17.2227897 5.48134359,17.3183795 6.1410359,17.7429949 C6.88965128,18.2240205 7.57447179,19.0496615 7.93262564,20.3144821 C8.33867692,20.2567385 8.39631795,20.2302769 8.76749744,20.1774564 L7.93057436,13.661559 L9.70124103,13.4668923 Z M10.1844205,21.6343795 L10.0880103,20.7308923 L11.969959,17.8597128 L14.1068821,18.4841231 L15.9447282,15.4148923 L18.1480103,16.8681231 L19.8215487,13.3583795 L20.4165231,19.7499692 L10.1844205,21.6343795 Z M20.4390872,12.0482256 L13.7131385,13.2673026 C13.5464718,13.4822769 13.1345744,13.8592 12.9364205,13.9574564 C12.0867795,14.3853538 11.5127282,14.2613538 11.0167282,14.1325333 C10.6977538,14.0514051 10.5128308,14.0059692 10.2476,13.8869949 L8.60595897,14.1121231 L9.60247179,22.4265846 L21.1249333,20.3499692 L20.4390872,12.0482256 Z"></path></svg>

<svg viewBox="0 0 24 24" xmlns="http://www.w3.org/2000/svg"><title>Datadog icon</title><path d="M8.004 6.294c.828-.564 1.895-.342 1.717-.172-.34.323.112.228.161.826.036.44-.108.684-.232.822a5.293 5.293 0 00-1.54.455 1.393 1.393 0 01-.151-.116c-.585-.505-.565-1.399.045-1.815zm4.947 3.489c.15-.117.833-.336 1.465-.411.332-.04.805-.062.906-.006.2.111.2.453.063.77-.2.46-.482.967-.802 1.009-.522.069-1.016-.213-1.58-.635-.2-.15-.324-.517-.052-.727zm.952-4.474c.77.358.67 1.04.691 1.441.006.115.004.193-.006.246-.107-.057-.275-.1-.543-.088a1.979 1.979 0 00-.228.024c-.284-.152-.454-.45-.61-.767a1.144 1.144 0 01-.035-.081l-.014-.035-.005-.016c-.085-.27-.028-.325.008-.408.037-.085.177-.156-.029-.227a.376.376 0 00-.064-.014c.135-.17.544-.21.835-.075zM9.7 13.467c-.83-.534-1.69-1.298-2.065-1.721-.063-.048-.053-.259-.053-.259.34.264 1.746 1.269 3.233 1.728.525.162 1.33.223 2.028-.173.534-.303 1.177-.83 1.56-1.373l.07.122c-.002.08-.18.474-.269.632.162.093.283.119.464.168l1.232-.192c.442-.714.759-1.865.421-2.962-.193-.628-1.198-1.88-1.27-1.949-.253-.243.042-1.18-.459-2.203-.53-1.081-1.907-2.21-2.506-2.701.176.129 1.263.567 1.769 1.178.047-.063.067-.392.11-.475-.434-.569-.468-1.582-.468-1.853 0-.497-.253-1.06-.253-1.06s.435.344.548.937c.132.703.416 1.256.79 1.724.709.882 1.348 1.335 1.672 1.01.388-.393-.392-2.146-1.388-3.124C13.706-.22 13.4-.073 12.719.17c-.544.193-.838 1.739-2.256 1.708a13.79 13.79 0 00-1.166-.04c.16-.223.296-.395.296-.395s-.475.191-.88.434l-.032-.047c.137-.289.284-.47.284-.47s-.38.228-.727.501c.063-.344.302-.562.302-.562s-.48.087-1.092.76c-.696.19-.863.315-1.417.56-.9-.196-1.326-.514-1.73-1.098-.31-.445-.858-.513-1.42-.283-.817.34-1.851.802-1.851.802s.336-.013.688.003c-.481.182-.944.432-.944.432s.226-.008.504-.003c-.193.16-.299.236-.481.357-.44.32-.797.688-.797.688s.299-.136.567-.212c-.188.43-.56.746-.49 1.272.065.48.654 1.47 1.416 2.077.065.053 1.105 1.014 1.89.62.783-.395 1.092-.746 1.221-1.286.152-.62.065-1.086-.258-2.43a40.117 40.117 0 00-.519-1.793l.03-.022c.257.54.913 1.967 1.177 2.924.413 1.494.284 2.252.095 2.53-.57.838-2.029.948-2.693.484-.101 1.609.258 2.317.38 2.673-.061.41.205 1.172.205 1.172s.03-.347.151-.529c.033.407.238.89.238.89s-.012-.298.081-.556c.131.222.228.276.352.443.124.435.374.753.374.753s-.04-.233-.018-.476c.609.584.713 1.438.774 2.093.17 1.803-2.842 3.235-3.426 4.363-.442.667-.707 1.724.042 2.347 1.812 1.504 1.116 1.918 2.022 2.58 1.244.906 2.801.5 3.331-.238.738-1.027.548-1.997.274-2.903-.214-.71-.796-1.887-1.517-2.343a3.148 3.148 0 00-2.056-.49l.056-.065c.872-.173 1.782-.078 2.442.347.749.481 1.433 1.307 1.792 2.571.406-.057.463-.084.834-.137l-.836-6.515 1.77-.195zm.483 8.167l-.096-.903 1.882-2.871 2.137.624 1.838-3.07 2.203 1.454 1.674-3.51.595 6.392-10.233 1.884zm10.255-9.586l-6.726 1.22c-.167.214-.578.591-.777.69-.85.427-1.423.303-1.92.175-.318-.082-.503-.127-.768-.246l-1.642.225.996 8.315 11.523-2.077-.686-8.302z"/></svg>
